images/logo.svg

<svg fill="#e8d196" height="86" viewBox="0 0 176 86" width="176" xmlns="http://www.w3.org/2000/svg"><g fill="#e8d196"><path clip-rule="evenodd" d="m175.148 29.023c0 6.4894-1.819 11.3564-5.456 14.601-3.617 3.2447-9.176 4.867-16.678 4.867-4.898 0-8.959-.7956-12.183-2.387-3.203-1.612-5.559-3.7613-7.068-6.448-1.509-2.6866-2.263-5.7143-2.263-9.083 0-1.0746.062-2.0253.186-2.852l16.709-3.41c-.351.806-.61 1.55-.775 2.232s-.248 1.5087-.248 2.48c0 1.86.506 3.2654 1.519 4.216 1.033.9507 2.387 1.426 4.061 1.426 2.005 0 3.513-.4856 4.526-1.457 1.033-.9713 1.55-2.7383 1.55-5.301v-13.051h-17.112l-2.294-13.856977h35.526zm-131.7105-27.03179h23.901c6.6753 0 11.8937 1.054 15.655 3.162 3.782 2.108 5.673 5.24929 5.673 9.42399 0 1.7567-.3617 3.2653-1.085 4.526-.7027 1.24-1.8703 2.2733-3.503 3.1-1.612.806-3.7923 1.395-6.541 1.767v1.643c4.4227.434 7.719 1.5087 9.889 3.224s3.255 3.9887 3.255 6.82c0 8.556-7.1197 12.834-21.359 12.834h-25.885v-16.743c-.8243 1.1675-1.8185 2.1915-2.9825 3.072-3.968 2.9967-10.013 4.495-18.135 4.495h-6.2v9.176h-16.12v-46.49999h24.676c4.278 0 8.0497.67167 11.315 2.015 3.1426 1.29283 5.6247 3.26518 7.4465 5.91707zm25.451 34.44099c1.6327 0 2.8727-.279 3.72-.837.8473-.5787 1.271-1.6637 1.271-3.255 0-1.364-.589-2.325-1.767-2.883-1.1573-.5787-2.8727-.868-5.146-.868h-7.409v7.843zm-3.441-14.787c2.108 0 3.7097-.248 4.805-.744 1.0953-.5167 1.643-1.4053 1.643-2.666 0-1.674-.465-2.79-1.395-3.348-.9093-.558-2.108-.837-3.596-.837h-7.347v7.595zm-37.3615 3.286c-1.1573.806-2.914 1.209-5.27 1.209h-6.696v-10.974h8.122c1.24 0 2.263.155 3.069.465.8267.31 1.457.868 1.891 1.674s.651 1.9427.651 3.41c0 1.984-.589 3.3893-1.767 4.216z" fill-rule="evenodd"/><path clip-rule="evenodd" d="m85.706 7.68006c.0574-1.46249.0861-2.19374.9359-3.54858.2816-.44884 1.033-1.27033 1.455-1.59069 1.2739-.96702 2.4886-1.12375 4.918-1.43721 11.8331-1.526852 20.5711-1.447125 33.6971.10128 1.564.18438 2.345.27658 3.212.67771 1.222.56525 2.711 2.21105 3.151 3.48341.313.90293.322 1.39702.339 2.38521.017 1.02976.026 1.54464-.31 2.53391-.271.7983-.935 1.7094-1.711 2.443 1.486 1.638 1.6 4.0559 1.82 8.7353.275 5.8441.269 10.9717-.01 16.8205-.23 4.8293-.346 7.244-1.98 8.8829-1.635 1.639-4.066 1.7613-8.927 2.0058-8.966.451-16.363.4116-25.3869-.0545-4.6869-.242-7.0303-.3631-8.6477-1.9316-1.6174-1.5686-1.8044-3.8357-2.1785-8.3699-.518-6.2802-.5127-11.6995.0081-17.9798.3405-4.1066.5266-6.3506 1.7658-7.9022-.4731-.429-1.0431-1.0651-1.283-1.4552-.956-1.5546-.9266-2.30285-.8678-3.79934zm10.6547 3.46034c-1.1571 1.4698-1.7357 3.1821-1.7357 5.1367 0 1.767.4535 3.4089 1.3604 4.9257.907 1.5168 2.3534 3.0962 4.3396 4.7381l-.071 1.5011c-3.1271.4691-5.4804 1.3839-7.0598 2.7443-1.5793 1.3448-2.369 3.104-2.369 5.2776 0 1.5011.4144 2.8303 1.2431 3.9874.8288 1.1415 1.9781 2.0328 3.448 2.674 1.4855.6254 3.1744.9382 5.0667.9382 2.642 0 4.714-.4144 6.215-1.2432 1.517-.8444 2.729-2.1657 3.636-3.964l1.736-.2111 4.691 4.6912h13.417l-10.555-9.828.187-1.2666c2.69.0469 4.637-.4769 5.841-1.5715 1.219-1.1102 1.829-2.5332 1.829-4.2689 0-.6411-.117-1.2197-.352-1.7357h-11c.281.7975.422 1.548.422 2.2517 0 .735-.063 1.3448-.188 1.8296-.109.4691-.281.8834-.516 1.2431l-5.137-4.785c-1.469-1.376-2.509-2.4472-3.119-3.2134-.594-.7662-.892-1.4933-.892-2.1813 0-.6255.251-1.1259.751-1.5012.516-.3753 1.282-.5629 2.299-.5629 1.204 0 2.134.2267 2.791.6802.672.4534 1.009 1.0946 1.009 1.9233 0 .2659-.016.4691-.047.6099l12.103-2.932c0-2.1579-.602-4.0265-1.806-5.6059-1.204-1.59495-2.995-2.82246-5.372-3.6825-2.361-.87568-5.246-1.31352-8.655-1.31352-3.284 0-6.067.41438-8.35 1.24315-2.2831.82876-4.0031 1.98591-5.1603 3.47147zm6.1453 23.9247c-.782-.6568-1.173-1.5872-1.173-2.7912 0-.7662.149-1.4386.446-2.0172s.79-1.0946 1.478-1.5481l6.192 6.1923c-1.016.7506-2.174 1.1259-3.471 1.1259-1.517 0-2.674-.3206-3.472-.9617z" fill-rule="evenodd"/><path d="m175 73.7927c0 2.6031-.959 4.571-2.877 5.9037-1.918 1.3202-4.795 1.9803-8.631 1.9803-4.136 0-7.062-.6165-8.781-1.8495-1.707-1.2331-2.51-2.8585-2.41-4.8762l8.426-1.3825c-.013.0872-.019.1993-.019.3363 0 .2989.081.5293.243.6913.174.1619.492.2864.953.3736.46.0747 1.145.1121 2.055.1121.921 0 1.569-.081 1.943-.2429.386-.1619.579-.4795.579-.9528 0-.3985-.181-.7099-.542-.9341s-.94-.3986-1.738-.5231c-.797-.1246-1.967-.2491-3.512-.3737-2.179-.1245-3.886-.3985-5.119-.822-1.22-.4235-2.111-1.0836-2.671-1.9804-.548-.9092-.822-2.1547-.822-3.7365 0-1.7686.498-3.2507 1.494-4.4464.997-1.1957 2.323-2.08 3.979-2.6529 1.657-.5854 3.475-.8781 5.456-.8781 7.186 0 11.016 1.9928 11.49 5.9784l-8.744 2.4101v-.1495c-.025-.548-.293-.9404-.803-1.177-.498-.2491-1.221-.3737-2.167-.3737-1.732 0-2.597.4048-2.597 1.2144 0 .411.143.7162.429.9155.299.1992.735.3487 1.308.4483.573.0997 1.551.218 2.933.355l1.196.1121c2.242.1993 4.011.548 5.306 1.0462s2.223 1.1895 2.784 2.0738c.573.8718.859 2.0052.859 3.4002z"/><path d="m140.004 81.0976v-10.6864c0-1.5943-.262-2.7526-.785-3.475-.511-.7348-1.271-1.1023-2.279-1.1023-1.096 0-1.975.4048-2.635 1.2144-.66.7971-.99 1.9492-.99 3.4563v10.593h-9.584v-22.9796h9.397l-.784 7.1181.934.1868c.373-2.0177.897-3.5933 1.569-4.7267.673-1.1458 1.538-1.9554 2.597-2.4287 1.059-.4857 2.398-.7286 4.017-.7286 2.64 0 4.658.9839 6.053 2.9518 1.395 1.9555 2.092 5.0817 2.092 9.3787v11.2282z"/><path d="m108.276 85.899c-2.69 0-5.006-.2865-6.949-.8594-1.931-.5729-3.4132-1.4199-4.4469-2.5408-1.0213-1.121-1.5382-2.4848-1.5507-4.0915 0-.4608.0498-.9902.1495-1.588l6.6511-1.2704v-.8594l-3.2322-.2803v-2.7463l3.1382-.2055v-1.0649c-2.0671-.2118-3.6177-.8407-4.6515-1.887-1.0213-1.0462-1.532-2.3789-1.532-3.998 0-2.3665.8719-4.1164 2.6156-5.2498 1.7439-1.1459 4.1349-1.7188 7.1739-1.7188 1.557 0 2.803.1993 3.737.5978.934.3986 1.625 1.0961 2.073 2.0925.449.9964.673 2.3976.673 4.2035l-.019.766.953.0374c.187-1.9056.473-3.394.86-4.4651.398-1.0712.946-1.8371 1.644-2.298.697-.4608 1.613-.6912 2.746-.6912.66 0 1.495.0809 2.503.2428l-.018 9.0984h-.355c-1.071 0-2.105.1682-3.102.5045-.996.3238-2.042.8033-3.138 1.4385-1.059.6601-2.074 1.1459-3.045 1.4573-.959.3113-2.186.5355-3.681.6725v1.1957l10.948-.4671c.797.7847 1.426 1.7438 1.887 2.8772.461 1.1209.691 2.2792.691 3.4749 0 1.7437-.554 3.1823-1.662 4.3157-1.097 1.1458-2.597 1.9803-4.503 2.5034-1.906.5356-4.091.8034-6.558.8034zm-4.203-21.3542c0 .8221.249 1.4012.747 1.7375.511.3239 1.196.4858 2.055.4858.797 0 1.377-.1246 1.738-.3737.373-.2491.56-.7411.56-1.4759 0-1.4323-.915-2.1485-2.746-2.1485-1.569 0-2.354.5916-2.354 1.7748zm.766 12.0876c.012.7972.355 1.4199 1.027 1.8683.673.4359 1.638.6539 2.896.6539 1.059 0 1.781-.137 2.167-.411.399-.2865.598-.6788.598-1.177 0-.4484-.155-.8283-.467-1.1397-.299-.3238-.922-.5916-1.868-.8033-.934-.2242-2.311-.3799-4.129-.4671-.187.6103-.262 1.1023-.224 1.4759z"/><path d="m87.8529 59.2764c-1.4821 0-2.6342-.1246-3.4562-.3737-.8221-.2615-1.4137-.685-1.7749-1.2704-.3612-.5978-.5418-1.4261-.5418-2.4848s.1806-1.8807.5418-2.4661c.3612-.5978.9528-1.0275 1.7749-1.2891.8345-.2615 1.9865-.3923 3.4562-.3923 1.4573 0 2.5969.1308 3.4189.3923.8221.2616 1.4137.6913 1.7749 1.2891.3612.5854.5418 1.4074.5418 2.4661s-.1806 1.887-.5418 2.4848c-.3612.5854-.9528 1.0089-1.7749 1.2704-.8095.2491-1.9492.3737-3.4189.3737zm-4.8387 1.9616c.4733.2491 1.1209.4546 1.9429.6166.8221.1494 1.7873.2241 2.8958.2241 2.1174 0 3.7054-.2802 4.7641-.8407v19.8783h-9.6028z"/><path d="m80.1642 73.7927c0 2.6031-.959 4.571-2.8771 5.9037-1.9181 1.3202-4.7952 1.9803-8.6314 1.9803-4.135 0-7.062-.6165-8.7807-1.8495-1.7064-1.2331-2.5097-2.8585-2.4101-4.8762l8.4258-1.3825c-.0124.0872-.0187.1993-.0187.3363 0 .2989.081.5293.2429.6913.1744.1619.492.2864.9528.3736.4609.0747 1.1459.1121 2.0551.1121.9217 0 1.5693-.081 1.943-.2429.3861-.1619.5792-.4795.5792-.9528 0-.3985-.1806-.7099-.5418-.9341s-.9404-.3986-1.7375-.5231c-.7971-.1246-1.9679-.2491-3.5123-.3737-2.1797-.1245-3.886-.3985-5.1191-.822-1.2205-.4235-2.1111-1.0836-2.6716-1.9804-.548-.9092-.822-2.1547-.822-3.7365 0-1.7686.4982-3.2507 1.4946-4.4464s2.3229-2.08 3.9794-2.6529c1.6565-.5854 3.4749-.8781 5.4553-.8781 7.1866 0 11.0165 1.9928 11.4898 5.9784l-8.7435 2.4101v-.1495c-.0249-.548-.2927-.9404-.8033-1.177-.4982-.2491-1.2206-.3737-2.1672-.3737-1.7312 0-2.5969.4048-2.5969 1.2144 0 .411.1433.7162.4297.9155.299.1992.7349.3487 1.3078.4483.5729.0997 1.5507.218 2.9332.355l1.1957.1121c2.2419.1993 4.0105.548 5.3058 1.0462s2.2232 1.1895 2.7837 2.0738c.5729.8718.8594 2.0052.8594 3.4002z"/><path d="m30.332 69.421c0-2.5408.5667-4.708 1.7001-6.5015 1.1334-1.7936 2.6031-3.1387 4.4091-4.0355 1.8184-.8967 3.724-1.3451 5.7168-1.3451 3.5746 0 6.4206.7597 8.538 2.2793 2.1298 1.507 3.3068 3.861 3.531 7.062l-14.1427 4.9508c.2242.8345.5978 1.4199 1.1209 1.7562.5356.3238 1.2269.4857 2.0738.4857 1.0836 0 1.8869-.2055 2.41-.6165.5356-.4235.8034-1.0026.8034-1.7375 0-.0996-.0311-.2242-.0934-.3736l9.6215.8781c.0374.3363.056.6601.056.9715 0 1.644-.467 3.1075-1.4012 4.3904-.9216 1.2704-2.3415 2.273-4.2596 3.0078-1.918.7224-4.3032 1.0836-7.1554 1.0836-4.3592 0-7.6038-.9901-9.7336-2.9705-2.1298-1.9928-3.1947-5.0879-3.1947-9.2852zm9.472.3176 4.9883-1.7188c.0373-1.0836-.1682-1.9181-.6165-2.5035-.436-.5978-1.0089-.8967-1.7188-.8967-.847 0-1.5009.3549-1.9617 1.0649-.4608.7099-.6913 1.9554-.6913 3.7365z"/><path d="m0 53.0737h10.7611c4.2846 0 7.7097.5045 10.2754 1.5133 2.5782.9964 4.4465 2.5346 5.6048 4.6146 1.1583 2.0675 1.7375 4.7703 1.7375 8.1082 0 3.064-.7162 5.6297-2.1485 7.6972-1.4199 2.0551-3.3255 3.5871-5.7169 4.5959-2.3789.9964-5.0131 1.4946-7.9027 1.4946h-12.6107zm12.7789 19.7475c1.644 0 2.9393-.3986 3.8859-1.1957.9591-.7971 1.4386-2.2357 1.4386-4.3157 0-1.4821-.2367-2.6591-.71-3.531-.4732-.8718-1.1583-1.4946-2.055-1.8682-.8968-.3737-2.0364-.5605-3.4189-.5605h-2.20458v11.4711z"/></g></svg>

<svg width="176" height="86" viewBox="0 0 176 86" fill="#E8D196" xmlns="http://www.w3.org/2000/svg">
<path fill-rule="evenodd" clip-rule="evenodd" d="M175.148 29.023C175.148 35.5124 173.329 40.3794 169.692 43.624C166.075 46.8687 160.516 48.491 153.014 48.491C148.116 48.491 144.055 47.6954 140.831 46.104C137.628 44.492 135.272 42.3427 133.763 39.656C132.254 36.9694 131.5 33.9417 131.5 30.573C131.5 29.4984 131.562 28.5477 131.686 27.721L148.395 24.311C148.044 25.117 147.785 25.861 147.62 26.543C147.455 27.225 147.372 28.0517 147.372 29.023C147.372 30.883 147.878 32.2884 148.891 33.239C149.924 34.1897 151.278 34.665 152.952 34.665C154.957 34.665 156.465 34.1794 157.478 33.208C158.511 32.2367 159.028 30.4697 159.028 27.907V14.856H141.916L139.622 0.999023H175.148V29.023ZM43.4375 1.99121H67.3385C74.0138 1.99121 79.2322 3.04521 82.9935 5.15321C86.7755 7.26121 88.6665 10.4025 88.6665 14.5772C88.6665 16.3339 88.3048 17.8425 87.5815 19.1032C86.8788 20.3432 85.7112 21.3765 84.0785 22.2032C82.4665 23.0092 80.2862 23.5982 77.5375 23.9702V25.6132C81.9602 26.0472 85.2565 27.1219 87.4265 28.8372C89.5965 30.5525 90.6815 32.8259 90.6815 35.6572C90.6815 44.2132 83.5618 48.4912 69.3225 48.4912H43.4375V31.7482C42.6132 32.9157 41.619 33.9397 40.455 34.8202C36.487 37.8169 30.442 39.3152 22.32 39.3152H16.12V48.4912H0V1.99121H24.676C28.954 1.99121 32.7257 2.66288 35.991 4.00621C39.1336 5.29904 41.6157 7.27139 43.4375 9.92328V1.99121ZM68.8885 36.4322C70.5212 36.4322 71.7612 36.1532 72.6085 35.5952C73.4558 35.0165 73.8795 33.9315 73.8795 32.3402C73.8795 30.9762 73.2905 30.0152 72.1125 29.4572C70.9552 28.8785 69.2398 28.5892 66.9665 28.5892H59.5575V36.4322H68.8885ZM65.4475 21.6452C67.5555 21.6452 69.1572 21.3972 70.2525 20.9012C71.3478 20.3845 71.8955 19.4959 71.8955 18.2352C71.8955 16.5612 71.4305 15.4452 70.5005 14.8872C69.5912 14.3292 68.3925 14.0502 66.9045 14.0502H59.5575V21.6452H65.4475ZM28.086 24.9312C26.9287 25.7372 25.172 26.1402 22.816 26.1402H16.12V15.1662H24.242C25.482 15.1662 26.505 15.3212 27.311 15.6312C28.1377 15.9412 28.768 16.4992 29.202 17.3052C29.636 18.1112 29.853 19.2479 29.853 20.7152C29.853 22.6992 29.264 24.1045 28.086 24.9312Z" fill="#E8D196"/>
<path fill-rule="evenodd" clip-rule="evenodd" d="M85.706 7.68006C85.7634 6.21757 85.7921 5.48632 86.6419 4.13148C86.9235 3.68264 87.6749 2.86115 88.0969 2.54079C89.3708 1.57377 90.5855 1.41704 93.0149 1.10358C104.848 -0.423272 113.586 -0.343545 126.712 1.20486C128.276 1.38924 129.057 1.48144 129.924 1.88257C131.146 2.44782 132.635 4.09362 133.075 5.36598C133.388 6.26891 133.397 6.763 133.414 7.75119C133.431 8.78095 133.44 9.29583 133.104 10.2851C132.833 11.0834 132.169 11.9945 131.393 12.7281C132.879 14.3661 132.993 16.784 133.213 21.4634C133.488 27.3075 133.482 32.4351 133.203 38.2839C132.973 43.1132 132.857 45.5279 131.223 47.1668C129.588 48.8058 127.157 48.9281 122.296 49.1726C113.33 49.6236 105.933 49.5842 96.9091 49.1181C92.2222 48.8761 89.8788 48.755 88.2614 47.1865C86.644 45.6179 86.457 43.3508 86.0829 38.8166C85.5649 32.5364 85.5702 27.1171 86.091 20.8368C86.4315 16.7302 86.6176 14.4862 87.8568 12.9346C87.3837 12.5056 86.8137 11.8695 86.5738 11.4794C85.6178 9.9248 85.6472 9.17655 85.706 7.68006ZM96.3607 11.1404C95.2036 12.6102 94.625 14.3225 94.625 16.2771C94.625 18.0441 95.0785 19.686 95.9854 21.2028C96.8924 22.7196 98.3388 24.299 100.325 25.9409L100.254 27.442C97.1269 27.9111 94.7736 28.8259 93.1942 30.1863C91.6149 31.5311 90.8252 33.2903 90.8252 35.4639C90.8252 36.965 91.2396 38.2942 92.0683 39.4513C92.8971 40.5928 94.0464 41.4841 95.5163 42.1253C97.0018 42.7507 98.6907 43.0635 100.583 43.0635C103.225 43.0635 105.297 42.6491 106.798 41.8203C108.315 40.9759 109.527 39.6546 110.434 37.8563L112.17 37.6452L116.861 42.3364H130.278L119.723 32.5084L119.91 31.2418C122.6 31.2887 124.547 30.7649 125.751 29.6703C126.97 28.5601 127.58 27.1371 127.58 25.4014C127.58 24.7603 127.463 24.1817 127.228 23.6657H116.228C116.509 24.4632 116.65 25.2137 116.65 25.9174C116.65 26.6524 116.587 27.2622 116.462 27.747C116.353 28.2161 116.181 28.6304 115.946 28.9901L110.809 24.2051C109.34 22.8291 108.3 21.7579 107.69 20.9917C107.096 20.2255 106.798 19.4984 106.798 18.8104C106.798 18.1849 107.049 17.6845 107.549 17.3092C108.065 16.9339 108.831 16.7463 109.848 16.7463C111.052 16.7463 111.982 16.973 112.639 17.4265C113.311 17.8799 113.648 18.5211 113.648 19.3498C113.648 19.6157 113.632 19.8189 113.601 19.9597L125.704 17.0277C125.704 14.8698 125.102 13.0012 123.898 11.4218C122.694 9.82685 120.903 8.59934 118.526 7.7393C116.165 6.86362 113.28 6.42578 109.871 6.42578C106.587 6.42578 103.804 6.84016 101.521 7.66893C99.2379 8.49769 97.5179 9.65484 96.3607 11.1404ZM102.506 35.0651C101.724 34.4083 101.333 33.4779 101.333 32.2739C101.333 31.5077 101.482 30.8353 101.779 30.2567C102.076 29.6781 102.569 29.1621 103.257 28.7086L109.449 34.9009C108.433 35.6515 107.275 36.0268 105.978 36.0268C104.461 36.0268 103.304 35.7062 102.506 35.0651Z" fill="#E8D196"/>
<path d="M175 73.7927C175 76.3958 174.041 78.3637 172.123 79.6964C170.205 81.0166 167.328 81.6767 163.492 81.6767C159.356 81.6767 156.43 81.0602 154.711 79.8272C153.004 78.5941 152.201 76.9687 152.301 74.951L160.727 73.5685C160.714 73.6557 160.708 73.7678 160.708 73.9048C160.708 74.2037 160.789 74.4341 160.951 74.5961C161.125 74.758 161.443 74.8825 161.904 74.9697C162.364 75.0444 163.049 75.0818 163.959 75.0818C164.88 75.0818 165.528 75.0008 165.902 74.8389C166.288 74.677 166.481 74.3594 166.481 73.8861C166.481 73.4876 166.3 73.1762 165.939 72.952C165.578 72.7278 164.999 72.5534 164.201 72.4289C163.404 72.3043 162.234 72.1798 160.689 72.0552C158.51 71.9307 156.803 71.6567 155.57 71.2332C154.35 70.8097 153.459 70.1496 152.899 69.2528C152.351 68.3436 152.077 67.0981 152.077 65.5163C152.077 63.7477 152.575 62.2656 153.571 61.0699C154.568 59.8742 155.894 58.9899 157.55 58.417C159.207 57.8316 161.025 57.5389 163.006 57.5389C170.192 57.5389 174.022 59.5317 174.496 63.5173L165.752 65.9274V65.7779C165.727 65.2299 165.459 64.8375 164.949 64.6009C164.451 64.3518 163.728 64.2272 162.782 64.2272C161.05 64.2272 160.185 64.632 160.185 65.4416C160.185 65.8526 160.328 66.1578 160.614 66.3571C160.913 66.5563 161.349 66.7058 161.922 66.8054C162.495 66.9051 163.473 67.0234 164.855 67.1604L166.051 67.2725C168.293 67.4718 170.062 67.8205 171.357 68.3187C172.652 68.8169 173.58 69.5082 174.141 70.3925C174.714 71.2643 175 72.3977 175 73.7927Z" fill="#E8D196"/>
<path d="M140.004 81.0976V70.4112C140.004 68.8169 139.742 67.6586 139.219 66.9362C138.708 66.2014 137.948 65.8339 136.94 65.8339C135.844 65.8339 134.965 66.2387 134.305 67.0483C133.645 67.8454 133.315 68.9975 133.315 70.5046V81.0976H123.731V58.118H133.128L132.344 65.2361L133.278 65.4229C133.651 63.4052 134.175 61.8296 134.847 60.6962C135.52 59.5504 136.385 58.7408 137.444 58.2675C138.503 57.7818 139.842 57.5389 141.461 57.5389C144.101 57.5389 146.119 58.5228 147.514 60.4907C148.909 62.4462 149.606 65.5724 149.606 69.8694V81.0976H140.004Z" fill="#E8D196"/>
<path d="M108.276 85.899C105.586 85.899 103.27 85.6125 101.327 85.0396C99.396 84.4667 97.9138 83.6197 96.8801 82.4988C95.8588 81.3778 95.3419 80.014 95.3294 78.4073C95.3294 77.9465 95.3792 77.4171 95.4789 76.8193L102.13 75.5489V74.6895L98.8978 74.4092V71.6629L102.036 71.4574V70.3925C99.9689 70.1807 98.4183 69.5518 97.3845 68.5055C96.3632 67.4593 95.8525 66.1266 95.8525 64.5075C95.8525 62.141 96.7244 60.3911 98.4681 59.2577C100.212 58.1118 102.603 57.5389 105.642 57.5389C107.199 57.5389 108.445 57.7382 109.379 58.1367C110.313 58.5353 111.004 59.2328 111.452 60.2292C111.901 61.2256 112.125 62.6268 112.125 64.4327L112.106 65.1987L113.059 65.2361C113.246 63.3305 113.532 61.8421 113.919 60.771C114.317 59.6998 114.865 58.9339 115.563 58.473C116.26 58.0122 117.176 57.7818 118.309 57.7818C118.969 57.7818 119.804 57.8627 120.812 58.0246L120.794 67.123H120.439C119.368 67.123 118.334 67.2912 117.337 67.6275C116.341 67.9513 115.295 68.4308 114.199 69.066C113.14 69.7261 112.125 70.2119 111.154 70.5233C110.195 70.8346 108.968 71.0588 107.473 71.1958V72.3915L118.421 71.9244C119.218 72.7091 119.847 73.6682 120.308 74.8016C120.769 75.9225 120.999 77.0808 120.999 78.2765C120.999 80.0202 120.445 81.4588 119.337 82.5922C118.24 83.738 116.74 84.5725 114.834 85.0956C112.928 85.6312 110.743 85.899 108.276 85.899ZM104.073 64.5448C104.073 65.3669 104.322 65.946 104.82 66.2823C105.331 66.6062 106.016 66.7681 106.875 66.7681C107.672 66.7681 108.252 66.6435 108.613 66.3944C108.986 66.1453 109.173 65.6533 109.173 64.9185C109.173 63.4862 108.258 62.77 106.427 62.77C104.858 62.77 104.073 63.3616 104.073 64.5448ZM104.839 76.6324C104.851 77.4296 105.194 78.0523 105.866 78.5007C106.539 78.9366 107.504 79.1546 108.762 79.1546C109.821 79.1546 110.543 79.0176 110.929 78.7436C111.328 78.4571 111.527 78.0648 111.527 77.5666C111.527 77.1182 111.372 76.7383 111.06 76.4269C110.761 76.1031 110.138 75.8353 109.192 75.6236C108.258 75.3994 106.881 75.2437 105.063 75.1565C104.876 75.7668 104.801 76.2588 104.839 76.6324Z" fill="#E8D196"/>
<path d="M87.8529 59.2764C86.3708 59.2764 85.2187 59.1518 84.3967 58.9027C83.5746 58.6412 82.983 58.2177 82.6218 57.6323C82.2606 57.0345 82.08 56.2062 82.08 55.1475C82.08 54.0888 82.2606 53.2668 82.6218 52.6814C82.983 52.0836 83.5746 51.6539 84.3967 51.3923C85.2312 51.1308 86.3832 51 87.8529 51C89.3102 51 90.4498 51.1308 91.2718 51.3923C92.0939 51.6539 92.6855 52.0836 93.0467 52.6814C93.4079 53.2668 93.5885 54.0888 93.5885 55.1475C93.5885 56.2062 93.4079 57.0345 93.0467 57.6323C92.6855 58.2177 92.0939 58.6412 91.2718 58.9027C90.4623 59.1518 89.3226 59.2764 87.8529 59.2764ZM83.0142 61.238C83.4875 61.4871 84.1351 61.6926 84.9571 61.8546C85.7792 62.004 86.7444 62.0787 87.8529 62.0787C89.9703 62.0787 91.5583 61.7985 92.617 61.238V81.1163H83.0142V61.238Z" fill="#E8D196"/>
<path d="M80.1642 73.7927C80.1642 76.3958 79.2052 78.3637 77.2871 79.6964C75.369 81.0166 72.4919 81.6767 68.6557 81.6767C64.5207 81.6767 61.5937 81.0602 59.875 79.8272C58.1686 78.5941 57.3653 76.9687 57.4649 74.951L65.8907 73.5685C65.8783 73.6557 65.872 73.7678 65.872 73.9048C65.872 74.2037 65.953 74.4341 66.1149 74.5961C66.2893 74.758 66.6069 74.8825 67.0677 74.9697C67.5286 75.0444 68.2136 75.0818 69.1228 75.0818C70.0445 75.0818 70.6921 75.0008 71.0658 74.8389C71.4519 74.677 71.645 74.3594 71.645 73.8861C71.645 73.4876 71.4644 73.1762 71.1032 72.952C70.742 72.7278 70.1628 72.5534 69.3657 72.4289C68.5686 72.3043 67.3978 72.1798 65.8534 72.0552C63.6737 71.9307 61.9674 71.6567 60.7343 71.2332C59.5138 70.8097 58.6232 70.1496 58.0627 69.2528C57.5147 68.3436 57.2407 67.0981 57.2407 65.5163C57.2407 63.7477 57.7389 62.2656 58.7353 61.0699C59.7317 59.8742 61.0582 58.9899 62.7147 58.417C64.3712 57.8316 66.1896 57.5389 68.17 57.5389C75.3566 57.5389 79.1865 59.5317 79.6598 63.5173L70.9163 65.9274V65.7779C70.8914 65.2299 70.6236 64.8375 70.113 64.6009C69.6148 64.3518 68.8924 64.2272 67.9458 64.2272C66.2146 64.2272 65.3489 64.632 65.3489 65.4416C65.3489 65.8526 65.4922 66.1578 65.7786 66.3571C66.0776 66.5563 66.5135 66.7058 67.0864 66.8054C67.6593 66.9051 68.6371 67.0234 70.0196 67.1604L71.2153 67.2725C73.4572 67.4718 75.2258 67.8205 76.5211 68.3187C77.8164 68.8169 78.7443 69.5082 79.3048 70.3925C79.8777 71.2643 80.1642 72.3977 80.1642 73.7927Z" fill="#E8D196"/>
<path d="M30.332 69.421C30.332 66.8802 30.8987 64.713 32.0321 62.9195C33.1655 61.1259 34.6352 59.7808 36.4412 58.884C38.2596 57.9873 40.1652 57.5389 42.158 57.5389C45.7326 57.5389 48.5786 58.2986 50.696 59.8182C52.8258 61.3252 54.0028 63.6792 54.227 66.8802L40.0843 71.831C40.3085 72.6655 40.6821 73.2509 41.2052 73.5872C41.7408 73.911 42.4321 74.0729 43.279 74.0729C44.3626 74.0729 45.1659 73.8674 45.689 73.4564C46.2246 73.0329 46.4924 72.4538 46.4924 71.7189C46.4924 71.6193 46.4613 71.4947 46.399 71.3453L56.0205 72.2234C56.0579 72.5597 56.0765 72.8835 56.0765 73.1949C56.0765 74.8389 55.6095 76.3024 54.6753 77.5853C53.7537 78.8557 52.3338 79.8583 50.4157 80.5931C48.4977 81.3155 46.1125 81.6767 43.2603 81.6767C38.9011 81.6767 35.6565 80.6866 33.5267 78.7062C31.3969 76.7134 30.332 73.6183 30.332 69.421ZM39.804 69.7386L44.7923 68.0198C44.8296 66.9362 44.6241 66.1017 44.1758 65.5163C43.7398 64.9185 43.1669 64.6196 42.457 64.6196C41.61 64.6196 40.9561 64.9745 40.4953 65.6845C40.0345 66.3944 39.804 67.6399 39.804 69.421V69.7386Z" fill="#E8D196"/>
<path d="M0 53.0737H10.7611C15.0457 53.0737 18.4708 53.5782 21.0365 54.587C23.6147 55.5834 25.483 57.1216 26.6413 59.2016C27.7996 61.2691 28.3788 63.9719 28.3788 67.3098C28.3788 70.3738 27.6626 72.9395 26.2303 75.007C24.8104 77.0621 22.9048 78.5941 20.5134 79.6029C18.1345 80.5993 15.5003 81.0975 12.6107 81.0975H0V53.0737ZM12.7789 72.8212C14.4229 72.8212 15.7182 72.4226 16.6648 71.6255C17.6239 70.8284 18.1034 69.3898 18.1034 67.3098C18.1034 65.8277 17.8667 64.6507 17.3934 63.7788C16.9202 62.907 16.2351 62.2842 15.3384 61.9106C14.4416 61.5369 13.302 61.3501 11.9195 61.3501H9.71492V72.8212H12.7789Z" fill="#E8D196"/>
</svg>
